X: 7158
T: Chunnacas Gruagach 's An Aonach
R: waltz
M: 3/4
K: Dmajor
EE|FA B/<A/F F/<E/D|D2 EF B<B|BA D2 E2|EF FE|
EF|B2 e2 e2|B2 AF EF|B2 B2 c/<B/A|B2 AF||

